X: 22
T:Jenny Lind (Bampton) (EDS1)
M:2/4
L:1/16
A:EDS Autumn 1969
O:England; Oxfordshire; Bampton.
B:Lionel Bacon, A Handbook of Morris Dances
Z:http://www.themorrisring.org/music/handbook-morris-dances
P:A(AB2)4
K:D
P:A
F2A2 G2B2|A2f2 f2ef|G2e2 e2de|F2d2 d2cd|
F2A2 G2B2|A2f2 f2ef|g2e2 egfe|d2f2 d4  ||
P:B
K:G
g2f2 egfe|d2B2 B2AB|c2A2 A2GA|B2G2 G2AG|
g2f2 egfe|d2B2 B2AB|c2A2 AcBA|G2B2 G4  ||

